X:429
T:Johnny Will You Marry Me
D:Boys of the Lough
N:Aka "Johnny Won't You Marry Me" (Kerr's Merry Melodies)
N:Descended from "Braes of Mar"?
Z:Nigel Gatherer
M:4/4
L:1/8
K:G
GE | D2 DE GABA | GE (3EEE cEGE | D2 DE GABc | dedB A2 :|
z2 | BddB  GBdB | e2 ed    cdec | BddB  GABc | dedB A2 :|
<end>
<start>
